assets/media/img/about-24.svg

<svg width="40" height="40" viewBox="0 0 40 40" fill="none" xmlns="http://www.w3.org/2000/svg">
<path d="M18.1874 2.1191C19.2432 1.26021 20.7568 1.26021 21.8126 2.1191C22.6687 2.81546 23.7811 3.11355 24.8707 2.93849C26.2145 2.72258 27.5253 3.47941 28.0102 4.75114C28.4034 5.78222 29.2178 6.59659 30.2489 6.98975C31.5206 7.47467 32.2774 8.78554 32.0615 10.1293C31.8865 11.2189 32.1845 12.3313 32.8809 13.1874C33.7398 14.2432 33.7398 15.7568 32.8809 16.8126C32.1845 17.6687 31.8865 18.7811 32.0615 19.8707C32.2774 21.2145 31.5206 22.5253 30.2489 23.0102C29.2178 23.4034 28.4034 24.2178 28.0102 25.2489C27.5253 26.5206 26.2145 27.2774 24.8707 27.0615C23.7811 26.8865 22.6687 27.1845 21.8126 27.8809C20.7568 28.7398 19.2432 28.7398 18.1874 27.8809C17.3313 27.1845 16.2189 26.8865 15.1293 27.0615C13.7855 27.2774 12.4747 26.5206 11.9898 25.2489C11.5966 24.2178 10.7822 23.4034 9.75114 23.0102C8.47941 22.5253 7.72258 21.2145 7.93849 19.8707C8.11355 18.7811 7.81546 17.6687 7.1191 16.8126C6.26021 15.7568 6.26021 14.2432 7.1191 13.1874C7.81546 12.3313 8.11355 11.2189 7.93849 10.1293C7.72258 8.78554 8.47941 7.47467 9.75114 6.98975C10.7822 6.59659 11.5966 5.78222 11.9898 4.75114C12.4747 3.47941 13.7855 2.72258 15.1293 2.93849C16.2189 3.11355 17.3313 2.81546 18.1874 2.1191Z" stroke="#46403C"/>
<path fill-rule="evenodd" clip-rule="evenodd" d="M20.0003 33.332L27.0002 38.5367V39.5519L20.0002 34.5001L13 39.552V38.5369L20.0003 33.332Z" fill="#46403C"/>
<path fill-rule="evenodd" clip-rule="evenodd" d="M13 37.9999V26.0171C13.2955 26.2659 13.6348 26.4588 14 26.5853V37.9999H15.0621L13.7232 38.9999H13V37.9999ZM26.276 38.9999H27V37.9999V26.0171C26.7045 26.2659 26.3652 26.4588 26 26.5853V37.9999H24.9371L26.276 38.9999Z" fill="#46403C"/>
<path d="M17.5123 15.15C17.5123 14.6 17.6333 14.1233 17.8753 13.72C18.1246 13.3093 18.4473 12.994 18.8433 12.774C19.2466 12.5467 19.6829 12.433 20.1523 12.433C20.5189 12.433 20.8489 12.4807 21.1423 12.576C21.4356 12.6713 21.6996 12.8033 21.9343 12.972C22.1763 13.1333 22.3853 13.3167 22.5613 13.522V11.982C22.2386 11.718 21.8903 11.5163 21.5163 11.377C21.1423 11.2377 20.6729 11.168 20.1083 11.168C19.5436 11.168 19.0156 11.2633 18.5243 11.454C18.0403 11.6447 17.6186 11.9197 17.2593 12.279C16.8999 12.6383 16.6176 13.0637 16.4123 13.555C16.2143 14.039 16.1153 14.5707 16.1153 15.15C16.1153 15.7293 16.2143 16.2647 16.4123 16.756C16.6176 17.24 16.8999 17.6617 17.2593 18.021C17.6186 18.3803 18.0403 18.6553 18.5243 18.846C19.0156 19.0367 19.5436 19.132 20.1083 19.132C20.6729 19.132 21.1423 19.0623 21.5163 18.923C21.8903 18.7837 22.2386 18.582 22.5613 18.318V16.778C22.3853 16.9833 22.1763 17.1703 21.9343 17.339C21.6996 17.5003 21.4356 17.6287 21.1423 17.724C20.8489 17.8193 20.5189 17.867 20.1523 17.867C19.6829 17.867 19.2466 17.757 18.8433 17.537C18.4473 17.3097 18.1246 16.9907 17.8753 16.58C17.6333 16.1693 17.5123 15.6927 17.5123 15.15Z" fill="#46403C"/>
<circle cx="20" cy="15" r="8.5" stroke="#46403C"/>
</svg>

<svg width="40" height="40" fill="none" xmlns="http://www.w3.org/2000/svg"><path d="M18.187 2.12a2.872 2.872 0 013.626 0 3.873 3.873 0 003.058.818 2.872 2.872 0 013.14 1.813 3.873 3.873 0 002.238 2.239 2.872 2.872 0 011.813 3.14 3.873 3.873 0 00.819 3.057 2.872 2.872 0 010 3.626 3.873 3.873 0 00-.82 3.058 2.872 2.872 0 01-1.812 3.14 3.873 3.873 0 00-2.239 2.238 2.872 2.872 0 01-3.14 1.813 3.873 3.873 0 00-3.057.819 2.872 2.872 0 01-3.626 0 3.873 3.873 0 00-3.058-.82 2.872 2.872 0 01-3.14-1.812 3.873 3.873 0 00-2.238-2.239 2.872 2.872 0 01-1.813-3.14 3.873 3.873 0 00-.819-3.057 2.872 2.872 0 010-3.626 3.873 3.873 0 00.82-3.058A2.872 2.872 0 019.75 6.99a3.873 3.873 0 002.239-2.238 2.872 2.872 0 013.14-1.813 3.873 3.873 0 003.057-.819z" stroke="#46403C"/><path fill-rule="evenodd" clip-rule="evenodd" d="M20 33.332l7 5.205v1.015L20 34.5l-7 5.052v-1.015l7-5.205z" fill="#46403C"/><path fill-rule="evenodd" clip-rule="evenodd" d="M13 38V26.017c.296.249.635.442 1 .568V38h1.062l-1.339 1H13v-1zm13.276 1H27V26.017a3.159 3.159 0 01-1 .568V38h-1.063l1.339 1z" fill="#46403C"/><path d="M17.512 15.15c0-.55.121-1.027.363-1.43a2.6 2.6 0 01.968-.946c.404-.227.84-.341 1.31-.341.366 0 .696.048.99.143.293.095.557.227.791.396.242.161.451.345.627.55v-1.54a3.662 3.662 0 00-1.045-.605c-.374-.14-.843-.209-1.408-.209a4.34 4.34 0 00-1.584.286 3.67 3.67 0 00-1.265.825 3.92 3.92 0 00-.847 1.276 4.174 4.174 0 00-.297 1.595c0 .58.1 1.115.297 1.606.206.484.488.906.847 1.265.36.36.781.634 1.265.825a4.34 4.34 0 001.584.286c.565 0 1.034-.07 1.408-.209.374-.14.723-.341 1.045-.605v-1.54a3.322 3.322 0 01-.627.561c-.234.161-.498.29-.792.385a3.196 3.196 0 01-.99.143c-.47 0-.905-.11-1.309-.33a2.688 2.688 0 01-.968-.957c-.242-.41-.363-.887-.363-1.43z" fill="#46403C"/><circle cx="20" cy="15" r="8.5" stroke="#46403C"/></svg>
